X:944
T:Congratulations
C:Joe Buchanan's Scottish Tome - Page 550.0
I:550 0
Z:Carl Allison
R:Waltz
L:1/4
M:4/4
K:F
C D E |"F" F2 C2- | C F E F | "G"G2 D2- | D D E F |
"C7"A G F F | "Gm"F E "C7"D E | "F"C4- | C C D E |
"F"F2 C2- | C F E F | "G"G2 D2- | D D E F |
"C7"A>G G F | "Gm"F E "C7"D E | "F"F4- | F F E D |
"C"C C/(C/ C/)C/ C | D C A, B, | "F"D2 C2- | C F E D |
"C"C C/(C/ C/)C/ C | D C A, B, | "F"D2 C2- | C F E _D |
"D"D D D D | ^F>F G A | "Gm7"c2 B2- | B2 E F |
A2 G2- | G D/(D/ D/)E/ F | G4- | G4- | "C7"G4- | G C D E |
"^Chorus""F"F2 C2- | C F E F | "F"G2 D2- | D D E F |
"C"A G G F | "Gm"F E "C7"D E | "F"C4- | C C D E |
"F"F2 C2- | C F E F | "F"G2 D2- | D D E F |
"C"A>G G F | "Gm"F E "C7"D E | "F"F4- | "Bb7"F4 |]

